**kern	**kern	**dynam
*part1	*part1	*part1
*staff2	*staff1	*
*I"Piano	*	*
*clefF4	*clefG2	*
*k[b-]	*k[b-]	*
=1	=1	=1
8FF)	8r	pp
8r	8A':L 8c: 8a:	.
8r	8A':J 8c: 8f:	.
=	=	=
*	*^	*
8D-X	8r	8ryy	.
8r	16fLL	4B-	.
.	16aJ	.	.
8r	8gJ	.	.
*	*v	*v	*
=	=	=
8FF	8r	.
8r	8c:L 8f: 8a:	.
8r	8A:J 8c: 8f:	.
=	=	=
*	*^	*
8D-X	8r	8ryy	.
8r	16fLL	4B-	.
.	16aJ	.	.
8r	8gJ	.	.
*	*v	*v	*
=	=	=
!	!LO:TX:b:i:t=poco più lento	!
8FF	8r	.
8r	8c:L 8f: 8a:	.
8r	8A:J 8f:	.
=	=	=
*	*^	*
(4.D-X	8r	8ryy	.
.	(8aL	4B- 4f	.
.	8gJ)	.	.
=	=	=	=
4.C	8r	8ryy	.
!	!LO:TX:b:i:t=sempre	!	!
.	(8b-L	4c 4f	.
.	8aJ)	.	.
*	*v	*v	*
=	=	=
*-	*-	*-
!!!system-decoration: {(s1,s2)}
